static/logos/brex-glyph-color.svg

<svg width="50" height="39" viewBox="0 0 50 39" fill="none" xmlns="http://www.w3.org/2000/svg">
<g clip-path="url(#clip0_1_3354)">
<path d="M32.7614 3.07692C30.8912 5.57692 30.4393 6.40987 28.6341 6.40987H1.67969V38.4615H12.2554C14.6412 38.4615 16.9621 37.3077 18.4453 35.3846C20.3805 32.821 20.6376 32.0517 22.5078 32.0517H49.527V0H38.8864C36.5006 0 34.1808 1.15385 32.7614 3.07692ZM41.1435 23.7825H29.8587C27.408 23.7825 25.152 24.8077 23.6689 26.7944C21.7337 29.3594 21.3468 30.1287 19.5414 30.1287H9.99819V14.744H21.283C23.7326 14.744 25.9897 13.5901 27.473 11.6671C29.408 9.16708 29.9237 8.39785 31.6641 8.39785H41.1435V23.7825Z" fill="black"/>
</g>
<defs>
<clipPath id="clip0_1_3354">
<rect width="50" height="38.4615" fill="white"/>
</clipPath>
</defs>
</svg>

<svg xmlns="http://www.w3.org/2000/svg" width="82.051" height="64" fill="none" viewBox="0 0 50 39"><g clip-path="url(#a)"><path fill="#000" d="M32.761 3.077c-1.87 2.5-2.322 3.333-4.127 3.333H1.68v32.052h10.575c2.386 0 4.707-1.154 6.19-3.077 1.936-2.564 2.193-3.333 4.063-3.333h27.019V0h-10.64C36.5 0 34.18 1.154 32.76 3.077Zm8.383 20.705H29.859c-2.451 0-4.707 1.026-6.19 3.012-1.935 2.565-2.322 3.335-4.128 3.335H9.998V14.744h11.285c2.45 0 4.707-1.154 6.19-3.077 1.935-2.5 2.45-3.27 4.191-3.27h9.48v15.385Z"/></g><defs><clipPath id="a"><path fill="#fff" d="M0 0h50v38.462H0z"/></clipPath></defs></svg>
